icons/triangle-chevron-left.svg

<svg xmlns="http://www.w3.org/2000/svg" width="24" height="24" viewBox="0 0 24 24">
  <path d="M9.37135227,3.70432092 C10.1698214,2.25255887 11.9939942,1.72296031 13.4457562,2.52142944 C13.9442354,2.79559297 14.3544842,3.20584177 14.6286477,3.70432092 L14.6286477,3.70432092 L22.2461053,17.5542438 C23.0445744,19.0060058 22.5149759,20.8301786 21.0632138,21.6286477 C20.6202789,21.8722619 20.1229665,22 19.6174576,22 L19.6174576,22 L4.38254244,22 C2.72568819,22 1.38254244,20.6568542 1.38254244,19 C1.38254244,18.4944911 1.5102805,17.9971787 1.75389472,17.5542438 L1.75389472,17.5542438 Z M12.3871006,10.2097046 L12.2928932,10.2928932 L9.29289322,13.2928932 C8.93240926,13.6533772 8.90467972,14.2206082 9.20970461,14.6128994 L9.29289322,14.7071068 L12.2928932,17.7071068 C12.6834175,18.0976311 13.3165825,18.0976311 13.7071068,17.7071068 C14.0675907,17.3466228 14.0953203,16.7793918 13.7902954,16.3871006 L13.7071068,16.2928932 L11.415,14 L13.7071068,11.7071068 C14.0675907,11.3466228 14.0953203,10.7793918 13.7902954,10.3871006 L13.7071068,10.2928932 C13.3466228,9.93240926 12.7793918,9.90467972 12.3871006,10.2097046 Z"/>
</svg>

<svg xmlns="http://www.w3.org/2000/svg" viewBox="0 0 24 24">
  <path d="M9.37 3.7a3 3 0 0 1 5.26 0l7.62 13.85A3 3 0 0 1 19.62 22H4.38a3 3 0 0 1-2.63-4.45zm3.02 6.51-.1.08-3 3a1 1 0 0 0-.08 1.32l.08.1 3 3a1 1 0 0 0 1.5-1.32l-.08-.1L11.4 14l2.3-2.3a1 1 0 0 0 .08-1.31l-.08-.1a1 1 0 0 0-1.32-.08z"/>
</svg>
